X: 41051
T: Trip To Miriam's, The
R: reel
M: 4/4
K: Amajor
AE~E2 Adcd|BF~F2 BcdB|ce~e2 fcec|~B3A BAFB|
AE~E2 Adcd|BF~F2 BcdB|ce~e2 fcec|1 BAGB A3G:|2 BAGB ABcd||
ce~e2 fcec|~B3c BAFA|EAA FAA EA|A FAA EFAB|
ce~e2 fecA|~B3c BAFA|~E3F ABcf|ecBe cAAB:|

